X: 21071
M: 2/4
L: 1/16
K: Bb
V: 1 name="4"
(3(Bcd) |\
e>de>d e>ed>c | d>cd>c d>dc>B | B>AG>F F2GA | B>Fd>B f2cd |\
e>de>d e>ed>c | d>cd>c d>dc>B | B>AG>F F2GA | B2B2"^D.C."B2 |]


